X:231
T:
R:polska
N:I gammal folkviseton;
S:uppt. efter »Florsen» i Burs.
O:Gotland, Burs
M:3/4
L:1/8
K:Dm
f2 e^c de|f>f e^c de|ff/f/ e^c de|f>edf ed|^c2 A3 z::
f>g a2 g>a|b/a/g/f/ e2 g>b|af d2 f>e|^c>e d4:|

